build/category/DepositOutline.svg

<svg xmlns="http://www.w3.org/2000/svg" fill="none" viewBox="0 0 24 24" focusable="false"><path d="M0 0H24V24H0z"/><path fill="#74767B" fill-rule="evenodd" d="M4.0001 15.65L4.0001 17C4.0001 18.6569 5.34324 20 7.0001 20L17.0001 20C18.657 20 20.0001 18.6569 20.0001 17L20.0001 7C20.0001 5.34315 18.657 4 17.0001 4L7.0001 4C5.34324 4 4.0001 5.34315 4.0001 7L4.0001 8.35L3.0001 8.35C2.64111 8.35 2.3501 8.64102 2.3501 9C2.3501 9.35898 2.64111 9.65 3.0001 9.65L4.0001 9.65L4.0001 14.35L3.0001 14.35C2.64111 14.35 2.3501 14.641 2.3501 15C2.3501 15.359 2.64111 15.65 3.0001 15.65L4.0001 15.65ZM17.0001 5.3L7.0001 5.3C6.06121 5.3 5.3001 6.06112 5.3001 7L5.3001 8.35L6.0001 8.35C6.35908 8.35 6.6501 8.64102 6.6501 9C6.6501 9.35898 6.35908 9.65 6.0001 9.65L5.3001 9.65L5.3001 14.35L6.0001 14.35C6.35908 14.35 6.6501 14.641 6.6501 15C6.6501 15.359 6.35908 15.65 6.0001 15.65L5.3001 15.65L5.3001 17C5.3001 17.9389 6.06121 18.7 7.0001 18.7L17.0001 18.7C17.939 18.7 18.7001 17.9389 18.7001 17L18.7001 7C18.7001 6.06112 17.939 5.3 17.0001 5.3ZM15.9479 12.6479C15.6383 14.5489 13.9886 16 12.0001 16C9.79096 16 8.0001 14.2091 8.0001 12C8.0001 9.79086 9.79096 8 12.0001 8C13.9886 8 15.6383 9.45105 15.9479 11.3521C15.9651 11.3507 15.9825 11.35 16.0001 11.35L17.0001 11.35C17.3591 11.35 17.6501 11.641 17.6501 12C17.6501 12.359 17.3591 12.65 17.0001 12.65L16.0001 12.65C15.9825 12.65 15.9651 12.6493 15.9479 12.6479ZM14.7001 12C14.7001 13.4912 13.4913 14.7 12.0001 14.7C10.5089 14.7 9.3001 13.4912 9.3001 12C9.3001 10.5088 10.5089 9.3 12.0001 9.3C13.4913 9.3 14.7001 10.5088 14.7001 12ZM13.0001 12C13.0001 12.5523 12.5524 13 12.0001 13C11.4478 13 11.0001 12.5523 11.0001 12C11.0001 11.4477 11.4478 11 12.0001 11C12.5524 11 13.0001 11.4477 13.0001 12Z"/></svg>

<svg xmlns="http://www.w3.org/2000/svg" fill="none" viewBox="0 0 24 24" focusable="false"><path fill="#74767B" fill-rule="evenodd" d="M4 15.65V17c0 1.65 1.34 3 3 3h10c1.65 0 3-1.35 3-3V7c0-1.66-1.35-3-3-3H7C5.34 4 4 5.34 4 7v1.34H3a.655.655 0 0 0 0 1.31h1v4.7H3c-.36 0-.65.29-.65.65 0 .35.29.65.65.65zM17 5.29H7c-.94 0-1.7.77-1.7 1.71v1.34H6a.655.655 0 0 1 0 1.31h-.7v4.7H6c.35 0 .64.29.64.65 0 .35-.29.65-.64.65h-.7V17c0 .93.76 1.7 1.7 1.7h10c.93 0 1.7-.77 1.7-1.7V7c0-.94-.77-1.71-1.7-1.71m-1.06 7.35C15.63 14.54 13.98 16 12 16a3.999 3.999 0 1 1 0-8c1.98 0 3.63 1.45 3.94 3.35H17c.35 0 .64.29.64.65 0 .35-.29.65-.64.65h-1c-.02 0-.04-.01-.06-.01M14.7 12c0 1.49-1.21 2.7-2.7 2.7-1.5 0-2.7-1.21-2.7-2.7 0-1.5 1.2-2.71 2.7-2.71 1.49 0 2.7 1.21 2.7 2.71M13 12c0 .55-.45 1-1 1-.56 0-1-.45-1-1 0-.56.44-1 1-1 .55 0 1 .44 1 1"/></svg>
